**kern	**kern
*part1	*part1
*staff2	*staff1
*I"Piano	*
*clefF4	*clefG2
*k[]	*k[]
=1	=1
*	*^
2.GGG 2.GG	(2.e	2.G< 2.B-X<
2.FFF 2.FF	2.f 2.a-X	2.A-X<
=	=	=
2.EEE 2.EE	2.g	2.G<
*	*v	*v
2.EEE-X 2.EE-X	2.c) 2.g 2.cc
=	=
*	*^
1.DDD 1.DD	2.f#X	[1.A 1.c
.	2.e-X 2.g	.
*	*v	*v
=	=
!	!LO:TX:a:t=L.H.
2.ccc>	2.e-X 2.g 2.cc
2r	2.A] 2.c 2.e- 2.g
4r	.
=	=
*	*^
1.DDD 1.DD	2.f#X	[1.A 1.c
.	2.e-X 2.g	.
*	*v	*v
=	=
!	!LO:TX:a:t=L.H.
2.ccc>	2.e-X 2.g 2.cc
2r	2.A] 2.c 2.e- 2.g
4r	.
=	=
2.DD 2.D	(2.A 2.c 2.f#X
2.CC 2.C	2.e-X 2.f# 2.ee-X
=	=
2.BBB-X 2.BB-X	2.d 2.a 2.dd
2.AAA 2.AA	2.c) 2.f#X 2.cc
=	=
2.AAA-X 2.AA-X	2.Bn 2.fn 2.bn
2.FFF 2.FF	2.d 2.b 2.dd
=	=
*-	*-
!!!system-decoration: {(s1,s2)}
!!!RDF**kern: > = above
!!!RDF**kern: < = below
